lr raw备份/2024-10-26/DSC_2739.xmp
<x:xmpmeta xmlns:x="adobe:ns:meta/" x:xmptk="Adobe XMP Core 7.0-c000 1.000000, 0000/00/00-00:00:00        ">
 <rdf:RDF xmlns:rdf="http://www.w3.org/1999/02/22-rdf-syntax-ns#">
  <rdf:Description rdf:about=""
    xmlns:tiff="http://ns.adobe.com/tiff/1.0/"
    xmlns:exif="http://ns.adobe.com/exif/1.0/"
    xmlns:xmp="http://ns.adobe.com/xap/1.0/"
    xmlns:aux="http://ns.adobe.com/exif/1.0/aux/"
    xmlns:photoshop="http://ns.adobe.com/photoshop/1.0/"
    xmlns:xmpMM="http://ns.adobe.com/xap/1.0/mm/"
    xmlns:stEvt="http://ns.adobe.com/xap/1.0/sType/ResourceEvent#"
    xmlns:dc="http://purl.org/dc/elements/1.1/"
    xmlns:crd="http://ns.adobe.com/camera-raw-defaults/1.0/"
    xmlns:crs="http://ns.adobe.com/camera-raw-settings/1.0/"
   tiff:Make="NIKON CORPORATION"
   tiff:Model="NIKON D7100"
   tiff:Orientation="1"
   tiff:ImageWidth="4800"
   tiff:ImageLength="3200"
   exif:ExifVersion="0231"
   exif:ExposureTime="1/125"
   exif:ShutterSpeedValue="6965784/1000000"
   exif:FNumber="4/1"
   exif:ApertureValue="4/1"
   exif:ExposureProgram="1"
   exif:SensitivityType="2"
   exif:ExposureBiasValue="24/6"
   exif:MaxApertureValue="36/10"
   exif:MeteringMode="5"
   exif:LightSource="0"
   exif:FocalLength="180/10"
   exif:SensingMethod="2"
   exif:FileSource="3"
   exif:SceneType="1"
   exif:FocalLengthIn35mmFilm="36"
   exif:CustomRendered="0"
   exif:ExposureMode="1"
   exif:WhiteBalance="1"
   exif:SceneCaptureType="0"
   exif:GainControl="1"
   exif:Contrast="0"
   exif:Saturation="0"
   exif:Sharpness="0"
   exif:SubjectDistanceRange="0"
   exif:DigitalZoomRatio="133/100"
   exif:FocalPlaneXResolution="83841555/32768"
   exif:FocalPlaneYResolution="83841555/32768"
   exif:FocalPlaneResolutionUnit="3"
   exif:DateTimeOriginal="2024-10-26T11:52:01.80"
   exif:PixelXDimension="4800"
   exif:PixelYDimension="3200"
   xmp:CreatorTool="Ver.1.02"
   xmp:ModifyDate="2024-10-26T11:52:01.80"
   xmp:CreateDate="2024-10-26T11:52:01.80"
   xmp:MetadataDate="2024-10-26T21:23:55+08:00"
   aux:SerialNumber="8261016"
   aux:LensInfo="180/10 1400/10 35/10 56/10"
   aux:Lens="18.0-140.0 mm f/3.5-5.6"
   aux:LensID="160"
   aux:ImageNumber="13036"
   aux:ApproximateFocusDistance="168/100"
   photoshop:DateCreated="2024-10-26T11:52:01.80"
   photoshop:SidecarForExtension="NEF"
   photoshop:EmbeddedXMPDigest="A3A6AAC3C8FB340C7C09F1A12F19CF8B"
   xmpMM:DocumentID="FA42E8FAD5E8A802DEEA2BC34ED33AE2"
   xmpMM:PreservedFileName="DSC_2739.NEF"
   xmpMM:OriginalDocumentID="FA42E8FAD5E8A802DEEA2BC34ED33AE2"
   xmpMM:InstanceID="xmp.iid:40ba824c-8445-e044-8b30-680eeee26ea4"
   dc:format="image/x-nikon-nef"
   crd:CameraProfile="Camera STANDARD"
   crd:LookName=""
   crs:Version="15.0"
   crs:ProcessVersion="11.0"
   crs:WhiteBalance="As Shot"
   crs:Temperature="5700"
   crs:Tint="-20"
   crs:Exposure2012="-3.16"
   crs:Contrast2012="+30"
   crs:Highlights2012="-28"
   crs:Shadows2012="+73"
   crs:Whites2012="+5"
   crs:Blacks2012="+33"
   crs:Texture="+17"
   crs:Clarity2012="+21"
   crs:Dehaze="+34"
   crs:Vibrance="-16"
   crs:Saturation="-9"
   crs:ParametricShadows="0"
   crs:ParametricDarks="0"
   crs:ParametricLights="0"
   crs:ParametricHighlights="0"
   crs:ParametricShadowSplit="25"
   crs:ParametricMidtoneSplit="50"
   crs:ParametricHighlightSplit="75"
   crs:Sharpness="34"
   crs:SharpenRadius="+1.3"
   crs:SharpenDetail="33"
   crs:SharpenEdgeMasking="0"
   crs:LuminanceSmoothing="0"
   crs:ColorNoiseReduction="25"
   crs:ColorNoiseReductionDetail="50"
   crs:ColorNoiseReductionSmoothness="50"
   crs:HueAdjustmentRed="0"
   crs:HueAdjustmentOrange="0"
   crs:HueAdjustmentYellow="0"
   crs:HueAdjustmentGreen="0"
   crs:HueAdjustmentAqua="0"
   crs:HueAdjustmentBlue="0"
   crs:HueAdjustmentPurple="0"
   crs:HueAdjustmentMagenta="0"
   crs:SaturationAdjustmentRed="+17"
   crs:SaturationAdjustmentOrange="0"
   crs:SaturationAdjustmentYellow="0"
   crs:SaturationAdjustmentGreen="0"
   crs:SaturationAdjustmentAqua="0"
   crs:SaturationAdjustmentBlue="0"
   crs:SaturationAdjustmentPurple="0"
   crs:SaturationAdjustmentMagenta="0"
   crs:LuminanceAdjustmentRed="+26"
   crs:LuminanceAdjustmentOrange="0"
   crs:LuminanceAdjustmentYellow="0"
   crs:LuminanceAdjustmentGreen="0"
   crs:LuminanceAdjustmentAqua="0"
   crs:LuminanceAdjustmentBlue="0"
   crs:LuminanceAdjustmentPurple="0"
   crs:LuminanceAdjustmentMagenta="0"
   crs:SplitToningShadowHue="14"
   crs:SplitToningShadowSaturation="6"
   crs:SplitToningHighlightHue="0"
   crs:SplitToningHighlightSaturation="0"
   crs:SplitToningBalance="+15"
   crs:ColorGradeMidtoneHue="66"
   crs:ColorGradeMidtoneSat="15"
   crs:ColorGradeShadowLum="0"
   crs:ColorGradeMidtoneLum="0"
   crs:ColorGradeHighlightLum="0"
   crs:ColorGradeBlending="53"
   crs:ColorGradeGlobalHue="0"
   crs:ColorGradeGlobalSat="0"
   crs:ColorGradeGlobalLum="0"
   crs:AutoLateralCA="0"
   crs:LensProfileEnable="0"
   crs:LensManualDistortionAmount="0"
   crs:VignetteAmount="0"
   crs:DefringePurpleAmount="0"
   crs:DefringePurpleHueLo="30"
   crs:DefringePurpleHueHi="70"
   crs:DefringeGreenAmount="0"
   crs:DefringeGreenHueLo="40"
   crs:DefringeGreenHueHi="60"
   crs:PerspectiveUpright="0"
   crs:PerspectiveVertical="0"
   crs:PerspectiveHorizontal="0"
   crs:PerspectiveRotate="0.0"
   crs:PerspectiveAspect="0"
   crs:PerspectiveScale="100"
   crs:PerspectiveX="0.00"
   crs:PerspectiveY="0.00"
   crs:GrainAmount="0"
   crs:PostCropVignetteAmount="-13"
   crs:PostCropVignetteMidpoint="50"
   crs:PostCropVignetteFeather="50"
   crs:PostCropVignetteRoundness="0"
   crs:PostCropVignetteStyle="1"
   crs:PostCropVignetteHighlightContrast="0"
   crs:ShadowTint="0"
   crs:RedHue="0"
   crs:RedSaturation="0"
   crs:GreenHue="0"
   crs:GreenSaturation="0"
   crs:BlueHue="0"
   crs:BlueSaturation="0"
   crs:OverrideLookVignette="False"
   crs:ToneCurveName2012="Custom"
   crs:CameraProfile="Adobe Standard"
   crs:CameraProfileDigest="7F1F34ADA5FBB6E384DE1BCC4B922001"
   crs:UprightVersion="151388160"
   crs:UprightCenterMode="0"
   crs:UprightCenterNormX="0.530539"
   crs:UprightCenterNormY="0.496138"
   crs:UprightFocalMode="0"
   crs:UprightFocalLength35mm="34.4423"
   crs:UprightPreview="False"
   crs:UprightDependentDigest="F7173540FD9FB419BD947A976070F4D2"
   crs:UprightTransformCount="6"
   crs:UprightTransform_0="1.000000000,0.000000000,0.000000000,0.000000000,1.000000000,0.000000000,0.000000000,0.000000000,1.000000000"
   crs:UprightTransform_1="0.827697609,-0.091008243,0.091008243,0.158317966,0.866218962,-0.023985915,-0.085824696,-0.003056679,1.000000000"
   crs:UprightTransform_2="0.748435523,-0.108580111,0.071852777,0.115612517,0.794315629,-0.001837540,-0.179711700,-0.057041812,1.000000000"
   crs:UprightTransform_3="0.988267734,-0.101820947,0.056776606,0.229097131,0.988267733,-0.108682432,0.000000000,0.000000000,1.000000000"
   crs:UprightTransform_4="0.933011979,-0.133344148,0.064927861,0.203488267,0.901468044,-0.089591738,-0.002060160,-0.081421322,1.000000000"
   crs:UprightTransform_5="1.000000000,0.000000000,0.000000000,0.000000000,1.000000000,0.000000000,0.000000000,0.000000000,1.000000000"
   crs:HasSettings="True"
   crs:CropTop="0.11453"
   crs:CropLeft="0.000005"
   crs:CropBottom="0.62741"
   crs:CropRight="0.512884"
   crs:CropAngle="0"
   crs:CropConstrainToWarp="0"
   crs:HasCrop="True"
   crs:AlreadyApplied="False"
   crs:RawFileName="DSC_2739.NEF">
   <exif:ISOSpeedRatings>
    <rdf:Seq>
     <rdf:li>400</rdf:li>
    </rdf:Seq>
   </exif:ISOSpeedRatings>
   <exif:Flash
    exif:Fired="False"
    exif:Return="0"
    exif:Mode="2"
    exif:Function="False"
    exif:RedEyeMode="False"/>
   <xmpMM:History>
    <rdf:Seq>
     <rdf:li
      stEvt:action="saved"
      stEvt:instanceID="xmp.iid:40ba824c-8445-e044-8b30-680eeee26ea4"
      stEvt:when="2024-10-26T21:23:55+08:00"
      stEvt:softwareAgent="Adobe Photoshop Lightroom Classic 12.0 (Windows)"
      stEvt:changed="/metadata"/>
    </rdf:Seq>
   </xmpMM:History>
   <crs:ToneCurvePV2012>
    <rdf:Seq>
     <rdf:li>0, 0</rdf:li>
     <rdf:li>58, 61</rdf:li>
     <rdf:li>192, 217</rdf:li>
     <rdf:li>255, 255</rdf:li>
    </rdf:Seq>
   </crs:ToneCurvePV2012>
   <crs:ToneCurvePV2012Red>
    <rdf:Seq>
     <rdf:li>0, 0</rdf:li>
     <rdf:li>255, 255</rdf:li>
    </rdf:Seq>
   </crs:ToneCurvePV2012Red>
   <crs:ToneCurvePV2012Green>
    <rdf:Seq>
     <rdf:li>0, 0</rdf:li>
     <rdf:li>255, 255</rdf:li>
    </rdf:Seq>
   </crs:ToneCurvePV2012Green>
   <crs:ToneCurvePV2012Blue>
    <rdf:Seq>
     <rdf:li>0, 0</rdf:li>
     <rdf:li>255, 255</rdf:li>
    </rdf:Seq>
   </crs:ToneCurvePV2012Blue>
   <crs:Look>
    <rdf:Description
     crs:Name="Adobe Color"
     crs:Amount="1"
     crs:UUID="B952C231111CD8E0ECCF14B86BAA7077"
     crs:SupportsAmount="false"
     crs:SupportsMonochrome="false"
     crs:SupportsOutputReferred="false">
    <crs:Group>
     <rdf:Alt>
      <rdf:li xml:lang="x-default">Profiles</rdf:li>
     </rdf:Alt>
    </crs:Group>
    <crs:Parameters>
     <rdf:Description
      crs:Version="15.0"
      crs:ProcessVersion="11.0"
      crs:ConvertToGrayscale="False"
      crs:CameraProfile="Adobe Standard"
      crs:LookTable="E1095149FDB39D7A057BAB208837E2E1">
     <crs:ToneCurvePV2012>
      <rdf:Seq>
       <rdf:li>0, 0</rdf:li>
       <rdf:li>22, 16</rdf:li>
       <rdf:li>40, 35</rdf:li>
       <rdf:li>127, 127</rdf:li>
       <rdf:li>224, 230</rdf:li>
       <rdf:li>240, 246</rdf:li>
       <rdf:li>255, 255</rdf:li>
      </rdf:Seq>
     </crs:ToneCurvePV2012>
     <crs:ToneCurvePV2012Red>
      <rdf:Seq>
       <rdf:li>0, 0</rdf:li>
       <rdf:li>255, 255</rdf:li>
      </rdf:Seq>
     </crs:ToneCurvePV2012Red>
     <crs:ToneCurvePV2012Green>
      <rdf:Seq>
       <rdf:li>0, 0</rdf:li>
       <rdf:li>255, 255</rdf:li>
      </rdf:Seq>
     </crs:ToneCurvePV2012Green>
     <crs:ToneCurvePV2012Blue>
      <rdf:Seq>
       <rdf:li>0, 0</rdf:li>
       <rdf:li>255, 255</rdf:li>
      </rdf:Seq>
     </crs:ToneCurvePV2012Blue>
     </rdf:Description>
    </crs:Parameters>
    </rdf:Description>
   </crs:Look>
  </rdf:Description>
 </rdf:RDF>
</x:xmpmeta>
